X: 21420
T: Kesh, The
R: jig
M: 6/8
K: Gmajor
|:G3 GAB|A3 ABd|edd gdd|edB dBA|
G3 GAB|AGA B2d|edd gd2|BAF GAG:|
|:B2B d2d|ege dBA|B2B dBG|ABA AGA|
BAB d^cd|ede dgd|gfg aga|1 bgg g3:|2 bgf ef(e|e6)|

